X: 2002
T: Yoktur Zaman Gel
C: Lâtif Ağa
O: Turkey
F: http://compmusic.upf.edu/node/140
N: hicazkar--sarki--semai--yoktur_zaman--latif_aga
N: makam= hicazkar
N: form= sarki
N: usul= semai = 3/4
M: 3/4
L: 1/16
K: C _1/4B _7/8e _7/8A ^f
Q: 1/4=120
%%MIDI tuningsystem comma53
g4 f4 g2=a2  | _7/8b4 =a4 g2a2  | g4 f4 e2f2  | \
w:  ARANAĞME  |   |   | 
e4 d4 c4  | g4 f4 g2=a2  | _7/8b4 =a4 g2a2  | 
w:   |   |   | 
g4 f4 e2f2  | g8 z4  | =f4 =e4 f2a2  | g4 f4 e2f2  | \
w:   |   |   |   | 
e4 d4 c2d2  | B4 A4 G4  | 
w:   |   | 
g4 e2d2 c4  | B4 c4 d4  | B4 A4 A2G2  | \
w:   |   |   | 
G8 z4  | g4 f4 g2=a2  | _7/8b4 =a4 g2a2  | 
w:   |  ARANAĞME  |   | 
g4 f4 e2f2  | e4 d4 c4  | g4 f4 g2=a2  | \
w:   |   |   | 
_7/8b4 =a4 g2a2  | g4 f4 e2f2  | g8 z4  | 
w:   |   |   | 
=f4 =e4 f2a2  | g4 f4 e2f2  | e4 d4 c2d2  | \
w:   |   |   | 
B4 A4 G4  | g4 e2d2 c4  | B4 c4 d4  | 
w:   |   |   | 
B4 A4 A2G2  | G8 z4  | g12  | g2f2 g8  | =a2_b2 a2g2 g2f2  | g12  | \
w:   |   |  Yok  |  tur   |  za *  man   |  gel   | 
f8 e2d2  | =a4 g4 f4  | 
w:  mâ  |  hım   | 
g4 f2e2 e2d2  | d4 g4 z4  | g12  | g2f2 g8  | \
w:  he mân   |  gel   |  Yok  |  tur   | 
=a2_b2 a2g2 g2f2  | g12  | f8 e2d2  | 
w:  za *  man   |  gel   |  mâ  | 
=a4 g4 f4  | g4 f2e2 e2d2  | d8 z4  | c8 g4  | \
w:  hım   |  he mân   |  gel   |  Hâ  | 
g8 =f4  | =f4 f6a2  | g2=f2 e2d2 c4  | 
w:  lim   |  ya man   |  gel   | 
e12  | d2c2 B6A2  | c4 B2A4G2  | G4 g4 z4  | \
w:  ca  |  nım   |  a man   |  gel   | 
c8 g4  | g8 =f4  | =f4 f6a2  | g2=f2 e2d2 c4  | 
w:  Hâ  |  lim   |  ya man   |  gel   | 
e12  | d2c2 B6A2  | c4 B2A4G2  | G8 z4  | g4 f4 g2=a2  | \
w:  ca  |  nım   |  a man   |  gel   |  ARANAĞME  | 
_7/8b4 =a4 g2a2  | g4 f4 e2f2  | 
w:   |   | 
e4 d4 c4  | g4 f4 g2=a2  | _7/8b4 =a4 g2a2  | \
w:   |   |   | 
g4 f4 e2f2  | g8 z4  | =f4 =e4 f2a2  | 
w:   |   |   | 
g4 f4 e2f2  | e4 d4 c2d2  | B4 A4 G4  | \
w:   |   |   | 
g4 e2d2 c4  | B4 c4 d4  | B4 A4 A2G2  | 
w:   |   |   | 
G8 z4  | g4 f4 g2=a2  | _7/8b4 =a4 g2a2  | \
w:   |  ARANAĞME  |   | 
g4 f4 e2f2  | e4 d4 c4  | g4 f4 g2=a2  | 
w:   |   |   | 
_7/8b4 =a4 g2a2  | g4 f4 e2f2  | g8 z4  | \
w:   |   |   | 
=f4 =e4 f2a2  | g4 f4 e2f2  | e4 d4 c2d2  | 
w:   |   |   | 
B4 A4 G4  | g4 e2d2 c4  | B4 c4 d4  | B4 A4 A2G2  | \
w:   |   |   |   | 
G8 z4  | g12  | g2f2 g8  | =a2_b2 a2g2 g2f2  | 
w:   |  Yok  |  tur   |  za *  man   | 
g12  | f8 e2d2  | =a4 g4 f4  | g4 f2e2 e2d2  | \
w:  gel   |  mâ  |  hım   |  he mân   | 
d4 g4 z4  | g12  | g2f2 g8  | =a2_b2 a2g2 g2f2  | 
w:  gel   |  Yok  |  tur   |  za *  man   | 
g12  | f8 e2d2  | =a4 g4 f4  | g4 f2e2 e2d2  | \
w:  gel   |  mâ  |  hım   |  he mân   | 
d8 z4  | c8 g4  | g8 =f4  | =f4 f6a2  | 
w:  gel   |  Hâ  |  lim   |  ya man   | 
g2=f2 e2d2 c4  | e12  | d2c2 B6A2  | c4 B2A4G2  | \
w:  gel   |  ca  |  nım   |  a man   | 
G4 g4 z4  | c8 g4  | g8 =f4  | 
w:  gel   |  Hâ  |  lim   | 
=f4 f6a2  | g2=f2 e2d2 c4  | e12  | d2c2 B6A2  | \
w:  ya man   |  gel   |  ca  |  nım   | 
c4 B2A4G2  | G8 z4  | |


